X:1
T:Let my Prayer Arise
T:Let my Prayer Arise
T: Op. 24-6 Да исправится молитва моя (Da ispravitsya molitva moya)
T:Pavel Chesnokov (1877-1944)
T:Psalm 141
C:Pavel Chesnokov (1877-1944)
Z:Psalm 141
%%score 1 ( 2 3 ) ( 4 5 ) { ( 6 8 ) | ( 7 9 ) }
L:1/8
Q:1/4=71
M:4/4
K:D
V:1 bass nm="Bass" snm="B."
V:2 treble-8 nm="Tenor I\nTenor II" snm="T."
V:3 treble-8 
V:4 bass nm="Bass I\nBass II" snm="B."
V:5 bass 
V:6 treble nm="Piano" snm="Pno."
V:8 treble 
V:7 bass 
V:9 bass 
V:1
"^Adagio" B,,2 B,,2 | F,3 B,, B,,2 D,2 | D,2 C, C, C,2- C, z | F,2 F, E, D, C, B,, D, | %4
w: Da is-|pra vi tsya mo|lit va mo ya, *|ya ko ka di lo pryed To|
 (D,3 C,) C,2 C, C, | D,3 C, B,, D, F, A, | (A,3 ^G,) =G,2- G, z | D,4 E,2 E,2 | F,3 F, F,2- F, z | %9
w: bo _ yu, voz- dye|ya ni ye ru ku mo|ye _ yu, *|zhert va vye|chyer nya ya. *|
 z8 | z8 | z8 | z8 | z8 | z8 | z8 | z8 | F,3 B,, B,,2 D,2 | D,3 C, C,2 G,2 | (G,2 F,4) B,,2 | %20
w: ||||||||Gos po di, voz-|zvakh k Te be, u|sly _ shi|
 (D,4 C,2) C,2 | (D,3 C, B,,2 D, F,) | A,4 ^G,2 G,2 | =G,2 G, G, D,2 E,2 | F,6 F,2 | (D4 C2) B,2 | %26
w: mya * von|mi _ _ _ _|gla su mo|le ni ya mo ye|go, vnyeg|da * voz|
 B,3 ^A, A,2 F,2 | (=A,4 ^G,2) E,2 | (=G,4 F,) F, E, D, | C,3 C, C,2 D,2 | B,,6 z2 | z8 | z8 | z8 | %34
w: zva ti mi, von|mi, * von|mi, * vnyeg da voz|zva ti mi k Te|be||||
 z8 | z8 | z8 | z8 | z4 B,,2 B,,2 | (F,6 B,,2) | D,3 C, C,2 G,2 | F,3 B,, B,,2 D,2 | %42
w: ||||Po lo|zhi, *|Gos po di, khra|nye ni ye us|
 D,3 C, C,2 C,2 | (D,3 C,) B,,2 D, F, | A,3 ^G, =G,3 z | D,6 E,2 | F,3 F, F,3 z | z8 | z8 | z8 | %50
w: tom mo yi, i|dvyer' * o graz _|dye ni ya|O ust|nakh mo ikh||||
 z8 | z8 | z8 | z8 | z8 | z2 B,,2 D,2 F,2 | (A,6 ^G,2) | =G,4 D,2 E,2 | F,4 F,2 F,2 | (D4 C2) B,2 | %60
w: |||||Nye u klo|ni *|serd tse mo|ye v slo vye|sa * lu|
 B,3 ^A, A,2 F, F, | =A,4 ^G,2 E, E, | =G,4 F,2 B,,2 | C,4 C,2 D,2 | B,,6 z2 | z8 | z8 | z8 | z8 | %69
w: kav stvi ya, nyep- shchye|va ti, nye pshchye|va ti vi|ny o grye|sekh|||||
 z8 | z8 | z8 | z4 B,,2 B,,2 | F,3 B,, B,,2 D,2 | D,2 C, C, C,3 z | F,2 F, E, D, C, B,, D, | %76
w: |||Da is|pra vit- sya mo|lit va mo ya,|ya ko ka di lo pryed To|
 (D,3 C,) C,2 C, C, | D,3 C, B,, D, F, A, | (A,3 ^G,) =G,3 z | C,4 C,2 D,2 | B,,3 B,, B,,2 z2 | %81
w: bo _ yu, voz dye|ya ni ye ru ku mo|ye _ yu,|zhert va vye|chyer nya ya|
"^(Optional ending for solist)"!f! C,,4 C,,2 D,,2 | B,,,3 B,,, B,,,2 z2 |] %83
w: zhert va vye|chyer nya ya|
V:2
 z4 |!pp! F6 F2 | G3 G G2 G2 | F4 F2 F2 | G4- G z z2 | z2 F4!<(! F2!<)! | B2!>(! B2!>)! B2- B z | %7
w: |Da is-|pra- vit- sya mo|lit- va mo|ya, *|Da is|pra vit sya, *|
 z2!>(! B4 c2!>)! | c2 c2 c z!pp! ^A A | B3 B B2 B2 | B2 B B B2- B z | B2 B B B B B B | %12
w: Da is|pra vit sya Da is|pra vit- sya mo|lit va mo ya, *|ya ko ka di lo pryed To|
 (B3 ^A) A2 A A | B3 B!<(! B B B B!<)! |!>(! B4 B2-!>)! B z | B4 ^A2 A2 |!>(! B3 B B4-!>)! | %17
w: bo _ yu, voz dye|ya ni ye ru ku mo|ye yu, *|zhert va vye|cher nya ya|
 B4- B z z2 |!pp! G2 G2 G z z2 | z2 F2 F2 F z | z2 G2- G z z2 | z2 F2 F2- F z | z2 d2 d2- d z | %23
w: |Gos po di,|u sly shy|mya, *|von mi, *|von mi, *|
 z2 d2 (d2 c) z | z2 c2 c2- c z | z2!mf! f2 ^e2 =e2 | e4- e z z2 | z2!p! f2 (f2 e) z | %28
w: von mi, *|von mi, *|u sly shi|mya, *|von mi, *|
 z2!pp! e2 d z z2 | z2 B2 ^A z z2 | z2 F2 F z!mf! B B | f3 f e2 d2 | d2 d d d2- d z | %33
w: von mi,|von mi,|von mi Da is|pra vit sya mo|lit va mo ya, *|
 d2 d d c c B B | c4 c2 F F | =c3 c B B B B | ^A4 B2- B z | c4 c2 d2 | B3 B B2- B z | %39
w: ya ko ka di lo pryed To|bo yu, voz- dye|ya ni ye ru ku mo|ye yu *|zhyert va vye|cher nya ya. *|
 z4!pp! F2 F2 | G4- G z z2 | z2 F2 F2 F2 | G2 G2 G z2 z | z2!<(! F2 F2 F2!<)! | %44
w: Po lo|zhi, *|Po lo zhi,|Gos po di,|Po lo zhi,|
 d2!>(! d2 d2- d!>)! z | z4 d2 c2 | c4- c z!pp! ^A A | B3 B B2 B2 | B2 B B B2- B z | %49
w: Gos po di, *|po lo|zhi. * Da is|pra vit sya mo|lit va mo ya, *|
 B2 B B B B B B | (B3 ^A) A2 A A | B3 B B B B B | B4 B2- B z | B4 ^A2 A2 | B3 B B4- | B2- B z z4 | %56
w: ya ko ka di lo pryed To|bo _ yu, voz dye|ya ni ye ru ku mo|ye yu, *|zhyert va vye|cher nya ya.||
 z2!p! d2 d2 d2 | (d6 c2- | c4- c2- c) z | z2!mf! f2 ^e2 =e2 | e4- e z z2 | z2!p! f f f2 e z | %62
w: Nye u klo|ni, *||Nye u klo|ni, *|Nye pshchye va ti,|
 z2!pp! e e d2 d z | z2!p! B2 ^A z z2 | z2 F F F z!p! B B | f3 f e2 d2 | d2 c c c2- c z | %67
w: nye pshch va ti|vi ny|O grye syekh Da is|pra vit sya mo|lit va mo ya, *|
 d2 d d c c B B | c4 c2 F F | =c3 c B B B B | ^A4 B2- B z | c4 c2 d2 | B3 B B2- B z | z4 F2 F2 | %74
w: ya ko ka di lo pryed To|bo yu, Voz dye|ya ni ye ru ku mo|ye yu, *|zhyert va vye|cher nya ya. *|Da is|
 G3 G G2 G2 | F4 F2 F2 | G4- G z z2 | z2 F4 F2 | d2 d2 d2- d z | z2!p! B2 ^A2 A2 | B3 B B2- B z | %81
w: pra vit sya mo|lit va mo|ya, *|da is|pra vit sya, *|zhyert va vye|cher nya ya, *|
!pp! B4 ^A2 A2 |!>(! B3 B B2- B z!>)! |] %83
w: zhyert na vye|cher nya ya *|
V:3
 x4 | F6 F2 | G3 G G2 G2 | F4 F2 F2 | G4- G z z2 | x2 F4 F2 | G2 G2 G2- G x | x2 G4 B2 | %8
 B2 ^A2 A z F F | F3 F F2 F2 | G2 G G G2- G z | F2 F F G G G G | F4 F2 F F | F3 F F F F F | %14
 G4 G2- G z | G4 F2 F2 | F3 F F4- | F4- F x3 | G2 G2 G x3 | x2 F2 F2 F x | x2 G2- G x3 | %21
 x2 F2 F2- F x | x2 B2 B2- B x | x2 B2 B2- B x | x2 B2 ^A2- A x | x2 d2 c2 c2 | c4- c z z2 | %27
 x2 =c2 B2- B x | x2 ^A2 B x3 | x2 B2 ^A x3 | x4 F x B B | B3 B ^A2 ^G2 | =G2 G G G2- G z | %33
 d2 d d c c B B | (B3 ^A) A2 F F | =A3 A ^G G E E | =G4 F2- F z | B4 ^A2 A2 | F3 F F2- F x | %39
 x4 F2 F2 | G4- G x3 | x2 F2 F2 F2 | G2 G2 G x3 | x2 F2 F2 F2 | B2 B2 B2- B z | z4 B2 B2 | %46
 (B4 ^A) x F F | F3 F F2 F2 | G2 G G G2- G x | F2 F F G G G G | F4 F2 F F | F3 F F F F F | %52
 G4 G2- G x | G4 F2 F2 | F3 F F4- | F2- F x5 | x2 B2 B2 B2 | (B8- | B4 ^A2- A) z | x2 d2 c2 c2 | %60
 c4- c x3 | x2 =c c B2 B x | x2 ^A A B2 B x | x2 B2 ^A x3 | x2 F F F x B B | B3 B ^A2 ^G2 | %66
 =G2 G G G2- G x | d2 d d c c B B | (B3 ^A) A2 F F | =A3 A ^G G E E | =G4 F2- F x | B4 ^A2 A2 | %72
 F3 F F2- F x | x4 F2 F2 | G3 G G2 G2 | F4 F2 F2 | G4- G x3 | x2 F4 F2 | B2 B2 B2- B x | %79
 x2 B2 ^A2 A2 | B3 B B2- B x | G4 F2 F2 | F3 F F2- F x |] %83
V:4
 z4 |!pp! D,6 D,2 | E,3 E, E,2 E,2 | D,4 D,2 D,2 | E,4- E, z z2 | z2 D,4!<(! D,2!<)! | %6
 E,2!>(! E,2!>)! E,2- E, z | z2!>(! G,4 G,2!>)! | F,2 F,2 F, z!pp! C, C, | D,3 D, D,2 D,2 | %10
 D,2 D, D, D,2- D, z | D,2 D, D, E, E, E, E, | C,4 C,2 C, C, | D,3 D,!<(! D, D, D, D,!<)! | %14
!>(! D,4 D,2- D,!>)! z | E,4 C,2 C,2 |!>(! D,3 D, D,4-!>)! | D,4- D, z z2 |!pp! E,2 E,2 E, z z2 | %19
 z2 D,2 D,2 D, z | z2 E,2- E, z z2 | z2 D,2 D,2- D, z | z2 E,2 E,2- E, z | z2 E,2 E,2- E, z | %24
 z2 F,2 F,2- F, z | z2!mf! (B, =A,) ^G,2 =G,2 | F,4- F, z z2 | z2!p! ^D,2 E,2- E, z | %28
 z2!pp! C,2 D, z z2 | z2 E,2 E, z z2 | z2 E,2 E, z!mf! B,, B,, | F,3 F, F,2 ^E,2 | %32
 =E,2 E, E, E,2- E, z | F,2 F, F, ^E, E, =E, E, | [F,,E,]4 [F,,E,]2 F, F, | F,3 F, F, F, E, E, | %36
 E,4 D,2- D, z | E,4 E,2 E,2 | D,3 D, D,2- D, z | z4!pp! D,2 D,2 | E,4- E, z z2 | z2 D,2 D,2 D,2 | %42
 E,2 E,2 E, z2 z | z2!<(! D,2 D,2 D,2!<)! | E,2!>(! E,2 E,2- E,!>)! z | z4 G,2 G,2 | %46
 F,4- F, z!pp! C, C, | D,3 D, D,2 D,2 | D,2 D, D, D,2- D, z | D,2 D, D, E, E, E, E, | %50
 E,4 E,2 F, F, | D,3 D, D, D, D, D, | D,4 D,2- D, z | E,4 C,2 C,2 | D,3 D, D,4- | D,2- D, z z4 | %56
 z2!p! E,2 E,2 E,2 | (E,8 | F,4- F,2- F,) z | z2!mf! (B, A,) ^G,2 =G,2 | F,4- F, z z2 | %61
 z2!p! ^D, D, E,2 E, z | z2!pp! C, C, D,2 D, z | z2!p! E,2 E, z z2 | z2 D, D, D, z!p! B,, B,, | %65
 F,3 F, F,2 ^E,2 | =E,2 E, E, E,2- E, z | F,2 F, F, ^E, E, =E, E, | E,4 E,2 F, F, | %69
 F,3 F, F, F, E, E, | E,4 D,2- D, z | E,4 E,2 E,2 | D,3 D, D,2- D, z | z4 D,2 D,2 | %74
 E,3 E, E,2 E,2 | D,4 D,2 D,2 | E,4- E, z z2 | z2 D,4 D,2 | E,2 E,2 E,2- E, z | z2!p! E,2 E,2 E,2 | %80
 D,3 D, D,2- D, z |!pp! E,4 C,2 C,2 |!>(! D,3 D, D,2- D, z!>)! |] %83
V:5
 x4 | B,,6 B,,2 | B,,3 B,, B,,2 B,,2 | B,,4 B,,2 B,,2 | B,,4- B,, z z2 | x2 B,,4 B,,2 | %6
 E,,2 E,,2 E,,2- E,, x | x2 G,,4 G,,2 | F,,2 F,,2 F,, z F,, F,, | B,,3 B,, B,,2 B,,2 | %10
 G,,2 G,, G,, G,,2- G,, z | B,,2 B,, B,, E,, E,, E,, E,, | F,,4 F,,2 F,, F,, | %13
 B,,3 B,, B,, B,, B,, B,, | G,,4 G,,2- G,, z | E,,4 F,,2 F,,2 | B,,3 B,, B,,4- | B,,4- B,, x3 | %18
 B,,2 B,,2 B,, x3 | x2 B,,2 B,,2 B,, x | x2 B,,2- B,, x3 | x2 B,,2 B,,2- B,, x | %22
 x2 E,,2 E,,2- E,, x | x2 E,,2 G,,2- G,, x | x2 F,,2 F,,2- F,, x | x2 (B, A,) ^G,2 =G,2 | %26
 F,4- F, z z2 | x2 ^D,2 E,2- E, x | x2 C,2 D, x3 | x2 G,,2 F,, x3 | %30
 x2 [B,,,B,,]2 [B,,,B,,] x B,, B,, | D,3 D, C,2 B,,2 | ^A,,2 A,, A,, A,,2- A,, z | %33
 =A,,2 A,, A,, ^G,, G,, =G,, G,, | x6 F, F, | ^D,3 D, E, E, E, E, | C,4 D,2- D, x | %37
 G,,4 F,,2 F,,2 | B,,3 B,, B,,2- B,, z | x4 B,,2 B,,2 | B,,4- B,, x3 | x2 B,,2 B,,2 B,,2 | %42
 B,,2 B,,2 B,, x3 | x2 B,,2 B,,2 B,,2 | E,,2 E,,2 E,,2- E,, z | x4 G,,2 G,,2 | %46
 F,,4- F,, x F,, F,, | B,,3 B,, B,,2 B,,2 | G,,2 G,, G,, G,,2- G,, x | %49
 B,,2 B,, B,, E,, E,, E,, E,, | F,,4 F,,2 F, F, | B,,3 B,, B,, B,, B,, B,, | G,,4 G,,2- G,, x | %53
 E,,4 F,,2 F,,2 | B,,3 B,, B,,4- | B,,2- B,, x5 | x2 E,,2 E,,2 E,,2 | (E,,4 G,,4 | %58
 F,,4- F,,2- F,,) z | x2 (B, A,) ^G,2 =G,2 | F,4- F, x3 | x2 ^D, D, E,2 E, x | x2 C, C, D,2 D, x | %63
 x2 G,,2 F,, x3 | x2 [B,,,B,,] [B,,,B,,] [B,,,B,,] x B,, B,, | D,3 D, C,2 B,,2 | %66
 ^A,,2 A,, A,, A,,2- A,, x | =A,,2 A,, A,, ^G,, G,, =G,, G,, | F,,4 F,,2 F, F, | %69
 ^D,3 D, E, E, E, E, | C,4 D,2- D, x | G,,4 F,,2 F,,2 | B,,3 B,, B,,2- B,, x | x4 B,,2 B,,2 | %74
 B,,3 B,, B,,2 B,,2 | B,,4 B,,2 B,,2 | B,,4- B,, x3 | x2 B,,4 B,,2 | E,,2 E,,2 E,,2- E,, x | %79
 x2 G,,2 F,,2 F,,2 | G,,3 G,, G,,2- G,, z | E,,4 F,,2 F,,2 | %82
 [B,,,B,,]3 [B,,,B,,] [B,,,B,,]2- [B,,,B,,] x |] %83
V:6
 z4 | F6 F2 | G3 G G2 G2 | F4 F2 F2 | G4- G z z2 | z2 F4!<(! F2!<)! | B2!>(! B2!>)! B2- B z | %7
 z2!>(! B4 c2!>)! | c2 c2 c z ^A A | B3 B B2 B2 | B2 B B B2- B z | B2 B B B B B B | %12
 (B3 ^A) A2 A A | B3 B!<(! B B B B!<)! |!>(! B4 B2-!>)! B z | B4 ^A2 A2 |!>(! B3 B B4-!>)! | %17
 B4- B z z2 | G2 G2 G z z2 | z2 F2 F2 F z | z2 G2- G z z2 | z2 F2 F2- F z | z2 d2 d2- d z | %23
 z2 d2 (d2 c) z | z2 c2 c2- c z | z2 f2 ^e2 =e2 | e4- e z z2 | z2 f2 (f2 e) z | z2 e2 d z z2 | %29
 z2 B2 ^A z z2 | z2 F2 F z B B | f3 f e2 d2 | d2 d d d2- d z | d2 d d c c B B | c4 c2 F F | %35
 =c3 c B B B B | ^A4 B2- B z | c4 c2 d2 | B3 B B2- B z | z4 F2 F2 | G4- G z z2 | z2 F2 F2 F2 | %42
 G2 G2 G z2 z | z2!<(! F2 F2 F2!<)! | d2!>(! d2 d2- d!>)! z | z4 d2 c2 | c4- c z ^A A | %47
 B3 B B2 B2 | B2 B B B2- B z | B2 B B B B B B | (B3 ^A) A2 A A | B3 B B B B B | B4 B2- B z | %53
 B4 ^A2 A2 | B3 B B4- | B2- B z z4 | z2 d2 d2 d2 | (d6 c2- | c4- c2- c) z | z2 f2 ^e2 =e2 | %60
 e4- e z z2 | z2 f f f2 e z | z2 e e d2 d z | z2 B2 ^A z z2 | z2 F F F z B B | f3 f e2 d2 | %66
 d2 c c c2- c z | d2 d d c c B B | c4 c2 F F | ^B3 B =B B B B | ^A4 B2- B z | c4 c2 d2 | %72
 B3 B B2- B z | z4 F2 F2 | G3 G G2 G2 | F4 F2 F2 | G4- G z z2 | z2 F4 F2 | d2 d2 d2- d z | %79
 z2 B2 ^A2 A2 | B3 B B2- B z | B4 ^A2 A2 |!>(! B3 B B2- B z!>)! |] %83
V:7
 z4 |!pp! D,6 D,2 | E,3 E, E,2 E,2 | D,4 D,2 D,2 | E,4- E, z z2 | z2 D,4!<(! D,2!<)! | %6
 E,2!>(! E,2!>)! E,2- E, z | z2!>(! G,4 G,2!>)! | F,2 F,2 F, z!pp! C, C, | D,3 D, D,2 D,2 | %10
 D,2 D, D, D,2- D, z | D,2 D, D, E, E, E, E, | C,4 C,2 C, C, | D,3 D,!<(! D, D, D, D,!<)! | %14
!>(! D,4 D,2- D,!>)! z | E,4 C,2 C,2 |!>(! D,3 D, D,4-!>)! | D,4- D, z z2 |!pp! E,2 E,2 E, z z2 | %19
 z2 D,2 D,2 D, z | z2 E,2- E, z z2 | z2 D,2 D,2- D, z | z2 E,2 E,2- E, z | z2 E,2 E,2- E, z | %24
 z2 F,2 F,2- F, z | z2!mf! (B, =A,) ^G,2 =G,2 | F,4- F, z z2 | z2!p! ^D,2 E,2- E, z | %28
 z2!pp! C,2 D, z z2 | z2 E,2 E, z z2 | z2 E,2 E, z!mf! B,, B,, | F,3 F, F,2 ^E,2 | %32
 =E,2 E, E, E,2- E, z | F,2 F, F, ^E, E, =E, E, | [F,,E,]4 [F,,E,]2 F, F, | F,3 F, F, F, E, E, | %36
 E,4 D,2- D, z | E,4 E,2 E,2 | D,3 D, D,2- D, z | z4!pp! D,2 D,2 | E,4- E, z z2 | z2 D,2 D,2 D,2 | %42
 E,2 E,2 E, z2 z | z2!<(! D,2 D,2 D,2!<)! | E,2!>(! E,2 E,2- E,!>)! z | z4 G,2 G,2 | %46
 F,4- F, z!pp! C, C, | D,3 D, D,2 D,2 | D,2 D, D, D,2- D, z | D,2 D, D, E, E, E, E, | %50
 E,4 E,2 F, F, | D,3 D, D, D, D, D, | D,4 D,2- D, z | E,4 C,2 C,2 | D,3 D, D,4- | D,2- D, z z4 | %56
 z2!p! E,2 E,2 E,2 | (E,8 | F,4- F,2- F,) z | z2!mf! (B, A,) ^G,2 =G,2 | F,4- F, z z2 | %61
 z2!p! ^D, D, E,2 E, z | z2!pp! C, C, D,2 D, z | z2!p! E,2 E, z z2 | z2 D, D, D, z!p! B,, B,, | %65
 F,3 F, F,2 ^E,2 | =E,2 E, E, E,2- E, z | F,2 F, F, ^E, E, =E, E, | E,4 E,2 F, F, | %69
 F,3 F, F, F, E, E, | E,4 D,2- D, z | E,4 E,2 E,2 | D,3 D, D,2- D, z | z4 D,2 D,2 | %74
 E,3 E, E,2 E,2 | D,4 D,2 D,2 | E,4- E, z z2 | z2 D,4 D,2 | E,2 E,2 E,2- E, z | z2!p! E,2 E,2 E,2 | %80
 D,3 D, D,2- D, z |!pp! E,4 C,2 C,2 |!>(! D,3 D, D,2- D, z!>)! |] %83
V:8
 x4 | F6 F2 | G3 G G2 G2 | F4 F2 F2 | G4- G z z2 | x2 F4 F2 | G2 G2 G2- G x | x2 G4 B2 | %8
 B2 ^A2 A z F F | F3 F F2 F2 | G2 G G G2- G z | F2 F F G G G G | F4 F2 F F | F3 F F F F F | %14
 G4 G2- G z | G4 F2 F2 | F3 F F4- | F4- F x3 | G2 G2 G x3 | x2 F2 F2 F x | x2 G2- G x3 | %21
 x2 F2 F2- F x | x2 B2 B2- B x | x2 B2 B2- B x | x2 B2 ^A2- A x | x2 d2 c2 c2 | c4- c z z2 | %27
 x2 ^B2 =B2- B x | x2 ^A2 B x3 | x2 B2 ^A x3 | x4 F x B B | B3 B ^A2 ^G2 | G2 G G G2- G z | %33
 d2 d d c c B B | (B3 ^A) A2 F F | =A3 A ^G G E E | G4 F2- F z | B4 ^A2 A2 | F3 F F2- F x | %39
 x4 F2 F2 | G4- G x3 | x2 F2 F2 F2 | G2 G2 G x3 | x2 F2 F2 F2 | B2 B2 B2- B z | z4 B2 B2 | %46
 (B4 ^A) x F F | F3 F F2 F2 | G2 G G G2- G x | F2 F F G G G G | F4 F2 F F | F3 F F F F F | %52
 G4 G2- G x | G4 F2 F2 | F3 F F4- | F2- F x5 | x2 B2 B2 B2 | (B8- | B4 ^A2- A) z | x2 d2 c2 c2 | %60
 c4- c x3 | x2 ^B B =B2 B x | x2 ^A A B2 B x | x2 B2 ^A x3 | x2 F F F x B B | B3 B ^A2 ^G2 | %66
 G2 G G G2- G x | d2 d d c c B B | (B3 ^A) A2 F F | A3 A ^G G E E | G4 F2- F x | B4 ^A2 A2 | %72
 F3 F F2- F x | x4 F2 F2 | G3 G G2 G2 | F4 F2 F2 | G4- G x3 | x2 F4 F2 | B2 B2 B2- B x | %79
 x2 B2 ^A2 A2 | B3 B B2- B x | G4 F2 F2 | F3 F F2- F x |] %83
V:9
 x4 | B,,6 B,,2 | B,,3 B,, B,,2 B,,2 | B,,4 B,,2 B,,2 | B,,4- B,, z z2 | x2 B,,4 B,,2 | %6
 E,,2 E,,2 E,,2- E,, x | x2 G,,4 G,,2 | F,,2 F,,2 F,, z F,, F,, | B,,3 B,, B,,2 B,,2 | %10
 G,,2 G,, G,, G,,2- G,, z | B,,2 B,, B,, E,, E,, E,, E,, | F,,4 F,,2 F,, F,, | %13
 B,,3 B,, B,, B,, B,, B,, | G,,4 G,,2- G,, z | E,,4 F,,2 F,,2 | B,,3 B,, B,,4- | B,,4- B,, x3 | %18
 B,,2 B,,2 B,, x3 | x2 B,,2 B,,2 B,, x | x2 B,,2- B,, x3 | x2 B,,2 B,,2- B,, x | %22
 x2 E,,2 E,,2- E,, x | x2 E,,2 G,,2- G,, x | x2 F,,2 F,,2- F,, x | x2 (B, A,) ^G,2 =G,2 | %26
 F,4- F, z z2 | x2 ^D,2 E,2- E, x | x2 C,2 D, x3 | x2 G,,2 F,, x3 | %30
 x2 [B,,,B,,]2 [B,,,B,,] x B,, B,, | D,3 D, C,2 B,,2 | ^A,,2 A,, A,, A,,2- A,, z | %33
 =A,,2 A,, A,, ^G,, G,, =G,, G,, | x6 F, F, | ^D,3 D, E, E, E, E, | C,4 D,2- D, x | %37
 G,,4 F,,2 F,,2 | B,,3 B,, B,,2- B,, z | x4 B,,2 B,,2 | B,,4- B,, x3 | x2 B,,2 B,,2 B,,2 | %42
 B,,2 B,,2 B,, x3 | x2 B,,2 B,,2 B,,2 | E,,2 E,,2 E,,2- E,, z | x4 G,,2 G,,2 | %46
 F,,4- F,, x F,, F,, | B,,3 B,, B,,2 B,,2 | G,,2 G,, G,, G,,2- G,, x | %49
 B,,2 B,, B,, E,, E,, E,, E,, | F,,4 F,,2 F, F, | B,,3 B,, B,, B,, B,, B,, | G,,4 G,,2- G,, x | %53
 E,,4 F,,2 F,,2 | B,,3 B,, B,,4- | B,,2- B,, x5 | x2 E,,2 E,,2 E,,2 | (E,,4 G,,4 | %58
 F,,4- F,,2- F,,) z | x2 (B, A,) ^G,2 =G,2 | F,4- F, x3 | x2 ^D, D, E,2 E, x | x2 C, C, D,2 D, x | %63
 x2 G,,2 F,, x3 | x2 [B,,,B,,] [B,,,B,,] [B,,,B,,] x B,, B,, | D,3 D, C,2 B,,2 | %66
 ^A,,2 A,, A,, A,,2- A,, x | =A,,2 A,, A,, ^G,, G,, =G,, G,, | F,,4 F,,2 F, F, | %69
 ^D,3 D, E, E, E, E, | C,4 D,2- D, x | G,,4 F,,2 F,,2 | B,,3 B,, B,,2- B,, x | x4 B,,2 B,,2 | %74
 B,,3 B,, B,,2 B,,2 | B,,4 B,,2 B,,2 | B,,4- B,, x3 | x2 B,,4 B,,2 | E,,2 E,,2 E,,2- E,, x | %79
 x2 G,,2 F,,2 F,,2 | G,,3 G,, G,,2- G,, z | E,,4 F,,2 F,,2 | %82
 [B,,,B,,]3 [B,,,B,,] [B,,,B,,]2- [B,,,B,,] x |] %83

